!!!OTL@@DE: Matrosenlied
!!!COM: Pohlenz, August
!!!ODT: 1823
!!!OMD: Moderato
!!!LYR: Gerhard, Wilhelm
!!!LDT: 1817
!!!OCL: Erk, Ludwig
!!!GCO: Deutscher Liederschatz, Band 1
**kern	**kern	**kern
*staff3	*staff2	*staff1
*Ipiano	*Ipiano	*Ivox
*>[I,A,A]	*>[I,A,A]	*>[I,A,A]
*>norep[I,A]	*>norep[I,A]	*>norep[I,A]
*>I	*>I	*>I
=1-	=1-	=1-
*clefF4	*clefG2	*clefG2
*k[]	*k[]	*k[]
*C:	*C:	*C:
*met(C)	*met(C)	*met(C)
*M4/4	*M4/4	*M4/4
*MM84	*MM84	*MM84
4CC/ 4C/	8c/ 8e/L	2r
.	8G/	.
4r	8c/ 8e/	.
.	8G/J	.
2r	8c/ 8e/L	4r
.	8G/	.
.	8c/ 8e/	8g/
.	8G/J	8g/
=2!|:	=2!|:	=2!|:
*>A	*>A	*>A
4CC/ 4C/	8c/ 8e/L	4cc\
.	8G/	.
4r	8c/ 8e/	8cc\
.	8G/J	8cc\
4C/	8c/ 8e/L	4cc\
.	8G/	.
4r	8c/ 8e/	8b\
.	8G/J	8cc\
=3	=3	=3
4BB/	8d/ 8f/L	4dd\
.	8G/	.
4r	8d/ 8f/	4g/
.	8G/J	.
4GG/	8d/ 8f/L	4g/
.	8G/	.
4r	8d/ 8f/	8g/
.	8G/J	8g/
=4	=4	=4
4BB/	8d/ 8f/L	4g/
.	8G/	.
4GG/	8d/ 8f/	8r
.	8G/J	8g/
4BB/	8d/ 8f/L	(4ff\
.	8G/	.
4GG/	8d/ 8f/	8ee\)
.	8G/J	8dd\
=5	=5	=5
4C/	8c/ 8e/L	4ee\
.	8A/	.
4GG/	8c/ 8e/	4cc\
.	8G/J	.
4EE/	8c/ 8e/L	2r
.	8G/	.
4CC/	8c/ 8e/	.
.	8G/J	.
=6	=6	=6
2AAA/ 2AA/	8c/ 8e/L	2cc\
.	8A/	.
.	8c/ 8e/	.
.	8A/J	.
2EE/ 2E/	8d/ 8e/L	4b\
.	8B/	.
.	8d/ 8e/	4b\
.	8B/J	.
=7	=7	=7
[2AA/	8c/ 8e/L	2a/
.	8A/	.
.	8c/ 8e/	.
.	8A/J	.
8AA/L]	8c/ 8e/L	2r
8F/	8A/	.
8E/	8c/ 8e/	.
8D#/J	8A/J	.
=8	=8	=8
2E\	8c/ 8e/L	2a/
.	8A/	.
.	8c/ 8e/	.
.	8A/J	.
4EE/	8d/ 8e/L	4b\
.	8G#/	.
4EE/	8d/ 8e/	4b\
.	8G#/J	.
=9	=9	=9
2AA/	8c/ 8e/L	2cc\
.	8A/	.
.	8c/ 8e/	.
.	8A/J	.
8BB/L	8c/ 8e/L	8dd\L
8AA/J	8A/	8cc\J
8GG#/L	8c/ 8e/	8b\
8AA/J	8A/J	8cc\
=10	=10	=10
4BB'/	8d/ 8f/L	4dd\
.	8Gn/	.
4GGn'/	8d/ 8f/	8dd\
.	8Gn/J	8dd\
4BB'/	8d/ 8f/L	8ee\L
.	8G/	8dd\J
4GG'/	8d/ 8f/	8cc\L
.	8G/J	8dd\J
=11	=11	=11
4C/	8c/ 8e/L	2ee\
.	8G/	.
4EE/	8c/ 8e/	.
.	8G/J	.
4FF/	8d/L	8dd\L
.	8A/	8ff\J
4DD/	8d/ 8f/	8ee\
.	8A/J	8dd\
=12	=12	=12
4GG/	8c/ 8e/L	4cc\
.	8G/	.
4FF#/	8c/ 8e/	8cc\
.	8G/J	8cc\
4GG/	8B/ 8d/L	8cc\L
.	8G/	8b\J
4GGG/	8d/ 8f/	8a\L
.	8G/J	8b\J
=13	=13	=13
*^	*	*
8FF/L	(2CC\	2G/ 2c/ 2e/	2cc\
8GG/	.	.	.
8EE/	.	.	.
8GG/J	.	.	.
*v	*v	*	*
8C/)	4r	4r
8r	.	.
4r	4r	4g/
==:|!	==:|!	==:|!
*-	*-	*-
!!!ENC: Craig Stuart Sapp
!!!END: 2004/06/28/
!!!EFL: 012/651
